X: 31104
T: Paddy Fahey's
R: jig
M: 6/8
K: Dmixolydian
A2G EG/F/D|A,DF AGF|G2E CEG|cBd cAG|
A2G EFD|A,DF AGF|GEC cAG|FDD D3|
A2G EG/F/D|AGA dAF|G2E CEG|cBd cAG|
A2G EFD|A,DF AGF|GEC cAG|FDD D3||
d^cd efg|f/g/af ged|cAB c2d|cAG E/F/GA|
d^cd efg|f/g/af gfg|afd ^cAG|Ad^c d2c|
d^cd efg|f/g/af ged|cAB c2d|cAG E/F/GA|
d^cd efg|f/g/af gfg|afd ^cAG|Ad^c d3||

